X:1
T:Greenland (Haydn), 76.76 D
T:Johann Michael Haydn (1737-1806)
T:Greenland (Haydn), 76.76 D
T:Public Domain
C:Johann Michael Haydn (1737-1806)
Z:Public Domain
%%score ( 1 2 ) ( 3 4 )
L:1/8
M:4/4
K:Eb
V:1 treble 
V:2 treble 
V:3 bass 
V:4 bass 
V:1
 [EG]2 | [GB]2 [GB]2 [FB]2 [FB]2 | [Ee]4 [EG]2 [EG]2 | [EF]2 [EF]2 [EA]2 [EA]2 | [EG]6 [DF]2 | %5
 [EG]2 [GB]2 [FB]2 [FB]2 | [Ee]4 [E=A]2 [EA]2 | [DB]2 [Gc]2 [Fd]2 [Ec]2 | [DB]6 [Fd]2 | %9
 [Ee]2 [EB]2 [DA]2 [EG]2 | [EG]4 [DF]2 [Fd]2 | [Ee]2 [EB]2 [FA]2 [EG]2 | [DF]6 B,2 | E2 G2 B3 =B | %14
 d4 c2 [^Fc]2 | [GB]2 [EG]2 [DG]3 [DF] | E6 |] %17
V:2
 x2 | x8 | x8 | x8 | x8 | x8 | x8 | x8 | x8 | x8 | x8 | x8 | x6 B,2 | E2 G2 =B3 B | d4 c2 x2 | x8 | %16
 E6 |] %17
V:3
 [E,B,]2 | [E,E]2 [E,E]2 [D,B,]2 [D,B,]2 | [C,C]4 [G,,B,]2 [G,,B,]2 | %3
 [A,,C]2 [A,,C]2 [B,,B,]2 [B,,B,]2 | [E,B,]6 [B,,B,]2 | [E,B,]2 [E,B,]2 [D,B,]2 [D,B,]2 | %6
 [C,=A,]4 [F,C]2 [F,C]2 | [G,B,]2 [E,B,]2 [F,B,]2 [F,=A,]2 | [B,,B,]6 [A,B,]2 | %9
 [G,B,]2 [G,B,]2 [F,B,]2 [E,B,]2 | B,4 B,2 [A,B,]2 | [G,B,]2 [G,B,]2 [D,B,]2 [E,B,]2 | %12
 [B,,B,]6 B,,2 | E,2 G,2 B,3 =B, | D4 C2 [=A,E]2 | [B,E]2 [B,,B,]2 [B,,A,]3 [B,,A,] | [E,G,]6 |] %17
V:4
 x2 | x8 | x8 | x8 | x8 | x8 | x8 | x8 | x8 | x8 | B,4 B,2 x2 | x8 | x6 B,,2 | E,2 G,2 =B,3 B, | %14
 D4 C2 x2 | x8 | x6 |] %17

